X:1725
T:Brind-Nils Mazurka
R:Mazurka
S:Nils Almewall
O:Lansjärv, Norrbotten
Z:Johan Dahlberg
M:3/4
L:1/8
K:G
%%MIDI gchord fzcccz
"G" dd d"C"e "G"dd |\
%%MIDI gchord fzczcz
dB GB |"D7" cc cA FA|"G"dd dB G2|
%%MIDI gchord fzcccz
"G" dd d"C"e "G"dd |\
%%MIDI gchord fzczcz
dB GB |"D7" cc cA FA|"G"G4 G2:|
|:"G" BB BG Bd|"C"cc cB AG|"D"FF FD FA|"G"GG GB D2|
"Em" BB BG Bd|"Am"cc cB AG|"D"FF FD FA|"G"G2 G2:|
(:musicend:)

Svårt att få till ackordbytet på första takten.Någon som kan fixa?\\
%green% Fixat, men jag vet inte om det var värt det med tanke på att abc-koden blev en aning krångligare nu. Jag ändrade dessutom D-ackorden i förstareprisen till D7-ackord. /Nils

%red% Vad hände med takten? Ska det verkligen vara två tvåtakter insprängda? /Peter
(:music:)
